X:1
T:Der Kölner Markt
T:Nikolaus Zangius: Der Kölner Markt
T:#
T:Sopran
T:Nikolaus Zangius
T:Sopran
T:UA
L:1/8
M:2/2
K:F
V:1 treble nm="unbenannt1"
V:1
 z8 | z8 |{!stemless![Eg]} c4 c2 c2 | F4 G4 |"^5" A2 G2 A2 B2 | c6 B2 | A4 A4 | z2 c2 d2 e2 | %8
w: ||Ich ging ein-|mal spa-|zie * * *|* \-|* ren,|ich ging ein-|
 f2 e2 d2 cB |"^10" A2 B2 c4- | c2 BA G4 | F4 z4 | z8 | z4 F4 |"^15" F6 F2 | G4 F4- | F4 E4 | %17
w: mal spa- zie * *|||ren||zu|Köl- len|an dem|* Rhei-|
 F4 G4 |"^19" A4 z4 | z8 | z8 | z4 z2 c2 | f6 e2 | d2 c2 B4- |"^25" B4 A4 | A2 c2 =B4 | c4 z4 | %27
w: ne. Ein|G'schrei|||von|Stim- *||* men|in- ge- mei-|ne.|
 z4 z2 f2 | c4 z4 |"^30" z2 g2 e4 | z4 z2 g2 | e2 g2 e2 A2 | G2 G2 A4 | z8 | z8 |"^36" A4 A3 B | %36
w: Quart-|milch,|Quart- milch,|Quart-|milch, Quart- milch, der|an- der da.|||Bald ka- men|
 A2 B2 c2 f2 | d2 c2 d2 B2 | A4 z2 A2 |"^40" c4 c4 | z2 A2 c4 | c4 z4 | z2 f2 c4 | A4 z2 f2 | %44
w: ohn- ge- fähr ihr|ein ganz Hauf da-|her: Gelt|Seif, gelt,|gelt Seif,|gelt,|gelt Rein-|fisch, gelt|
"^45" c4 A4 | z2 f2 c4 | A4 z4 | z4 A2 G2- | G2 G2 F2 f2 |"^50" e2 e2 e2 dc | d4 A2 c2 | %51
w: Rein- fisch,|gelt Rein-|fisch!|Mann, Weib|* ohn alls ge-|fähr, der ei- * \-|* ne dar-|
 d2 _e2 d2 B2 | A3 A A2 B2 | G8 |"^55" A8 | z8 | z8 | z8 | z8 | z8 | z8 | z8 | z8 | z8 | z8 | z8 | %66
w: un- ter was der|Pro- lo- gus zum|Wein-|faß.||||||||||||
 z8 | A8 | A2 A2 A2 A2 |"^70" A8 | A8 | A6 A2 | A2 A2 A2 A2 | A8 |"^75" F8 | F4 F4 | E8 | %77
w: |Heu!|In dem Kamp auf'm|Heu-|markt|han wir|ein' erst- gu- ten|Wein,|gilt|zehn weiß|Pfen-|
"^http://icking-music-archive.org" F8 | z8 | z8 | z8 |"^82" z4 c4 | AGFG A4 | z4 g4 | %84
w: nig.||||Gelt|Cap- pes off Mo- ren,|gelt|
"^85" edcd e4 | z2 f2 c2 c2 | z2 f2 c2 c2 | z4 z2 c2 | A2 A2 z2 c2 |"^90" A2 A2 z4 | cccB A2 A2 | %91
w: Cap- pes off Mo- ren,|gelt Ul- lich,|gelt Ul- lich,|gelt|Bas- sen, gelt|Bas- sen,|Flek- ken aus- zu- ma- chen,|
 c2 cc f4 | z4 cccB | A2 A2 c2 cc |"^95" f4 z2 f2 | c4 A4 | z2 f2 c4 | A8 | z8 | z8 | z8 | z8 | %102
w: aus- zu- ma- chen,|Flek- ken aus- zu-|ma- chen, aus- zu- ma-|chen, gelt|Weiß- mehl,|gelt Weiß-|mehl.|||||
[M:3/4] z2 z2 c2 | c3 c _e2 |"^105" d3 d c2 | d4 f2 | e4 e2 | f3 e d2 | c3 c d2 |"^110" d4 d2 | %110
w: Nun|kau- fe, nun|kau- fe, wer|kau- fen|kann, nun|kau- fe, nun|kau- fe, wer|kau- fen|
 c4 c2 | d3 d e2 | f3 f f2 | d4 ^c2 |"^115" d4 d2 | e4 e2 | f4 f2 | d2 c4 | c6 |] %119
w: kann, nun|kau- fe, nun|kau- fe, wer|kau- fen|kann, ein|je- der|will nach|Hei- me|gahn.|

